docs/style/images/eye.svg

<?xml version="1.0" encoding="UTF-8"?>
<svg width="576px" height="384px" viewBox="0 0 576 384" version="1.1" xmlns="http://www.w3.org/2000/svg" xmlns:xlink="http://www.w3.org/1999/xlink">
    <!-- Generator: Sketch 48.2 (47327) - http://www.bohemiancoding.com/sketch -->
    <title>eye-regular</title>
    <desc>Created with Sketch.</desc>
    <defs></defs>
    <g id="Page-1" stroke="none" stroke-width="1" fill="none" fill-rule="evenodd">
        <g id="eye-regular" fill="#FFFFFF" fill-rule="nonzero">
            <path d="M288,80 C277.401273,80.1656586 266.88099,81.8494427 256.76,85 C261.441606,93.2331659 263.934291,102.52909 264,112 C264,142.927946 238.927946,168 208,168 C198.52909,167.934291 189.233166,165.441606 181,160.76 C167.678545,206.960641 185.414863,256.502219 225.031673,283.750499 C264.648484,310.998778 317.256483,309.839732 355.63478,280.873085 C394.013078,251.906437 409.55027,201.631785 394.206968,156.062679 C378.863665,110.493572 336.08263,79.8549034 288,80 Z M572.52,177.4 C518.29,71.59 410.93,0 288,0 C165.07,0 57.68,71.64 3.48,177.41 C-1.15927088,186.586998 -1.15927088,197.423002 3.48,206.6 C57.71,312.41 165.07,384 288,384 C410.93,384 518.32,312.36 572.52,206.59 C577.159271,197.413002 577.159271,186.576998 572.52,177.4 Z M288,336 C189.35,336 98.91,281 50.07,192 C98.91,103 189.34,48 288,48 C386.66,48 477.09,103 525.93,192 C477.1,281 386.66,336 288,336 Z" id="Shape"></path>
        </g>
    </g>
</svg>

<svg width="576" height="384" xmlns="http://www.w3.org/2000/svg"><path d="M288 80a110.94 110.94 0 0 0-31.24 5 55.4 55.4 0 0 1 7.24 27c0 30.928-25.072 56-56 56a55.4 55.4 0 0 1-27-7.24c-13.321 46.2 4.415 95.742 44.032 122.99 39.616 27.249 92.224 26.09 130.603-2.877 38.378-28.967 53.915-79.241 38.572-124.81C378.864 110.493 336.083 79.855 288 80zm284.52 97.4C518.29 71.59 410.93 0 288 0 165.07 0 57.68 71.64 3.48 177.41a32.35 32.35 0 0 0 0 29.19C57.71 312.41 165.07 384 288 384c122.93 0 230.32-71.64 284.52-177.41a32.35 32.35 0 0 0 0-29.19zM288 336c-98.65 0-189.09-55-237.93-144C98.91 103 189.34 48 288 48s189.09 55 237.93 144C477.1 281 386.66 336 288 336z" fill="#FFF"/></svg>
